X:805
T:Reel 805
M:4/4
K:Dmix
L:1/8
AG|F<DDC A,DDE|FDDF A2AG|FEDF ECCE| (3FED CE E2:|FE|FEFG A2AG|FEFG Add2|FEFG ABcA|GECE G2AG|FEFG ABAG|FEFG Adde|fdec dBcA|GECE G2|
